X:1
T:The Bay Tree
C:Andy Cutting
Z:robin.beech@mcgill.ca
R:bourree
M:3/4
L:1/8
K:G
B3B AB | d3dBA | (3GAG FG Ad | BA AA GA | B3BAB | d3dBA | GFG ABD | D3 DGA ::
B2GD GB | c2 EG ce | d2 FB dg | e2d2c2 | B2GD GB | c2 EG ce | d2 FB dg | e2 dd-dc :|
